X:7
T:Kesh Jig, The
T:Kerrigan's Jig
M:6/8
Z:Boston  It is _very_ widely played.
R:jig
K:G
D|~G3 GAB|ABA ABd|edd gdd|edB dBA|~G3 GAB|ABA ABd|edd gdB|AGF G2:|
A|~B3 dBd|ege dBG|~B3 dBG|ABA AGA|BAB dBd|ege dBd|gfg aga|bgf g2:|
<end>
<start>
